X:1
T:The Blood-Strained Banders
M:2/2
L:1/4
K:F
 z2 A B| c2- c3/4 =B/4 c3/4 c/4| A/2 F3/2- F/2A/2 A/2_B/2| c2- c3/4 =B/4 c3/4 B/4|\
 c2 z2| c/2 c =B/2c/2 c B/2| c =B A F| A A A/2 G3/2| F3/4- C/4 E F3/2 z/2|\
 F F/2 G/2- G z| A A/2 B G/2 z| F F/2F/2 G/2F/2 G| F E/2 C/2- C z|\
 F F/2 G/2- G z| c c/2 c G/2- G| A A A/2 G3/2| F3/4- C/4 E F3/2 z/2|\
